X:1
T:Åpen korøvelse - Yenyere Guma
T:Trad. cubano
%%score [ 1 2 3 ]
L:1/8
M:2/4
K:Eb
V:1 treble nm="I"
V:2 treble nm="II"
V:3 treble nm="III"
V:1
|: E>E EE | EE DF | C3/2B,3/2D | A,C B,2 | B,>B, B,B, | B,B, DF | A3/2F3/2G | EE E2 :| %8
w: Yen- ye- re Gu-|ma, la bue- nas|no- ches. Co-|mo~e- sta~u- sted?|Yen- ye- re Gu-|ma, la bue- nas|no- ches. Co-|mo~e- sta~u- sted?|
V:2
|: G>G GG | GG FA | E3/2D3/2F | CE D2 | D>D DD | DD FA | c3/2A3/2B | GG G2 :| %8
w: Yen- ye- re Gu-|ma, la bue- nas|no- ches. Co-|mo~e- sta~u- sted?|Yen- ye- re Gu-|ma, la bue- nas|no- ches. Co-|mo~e- sta~u- sted?|
V:3
|: E3/2B,3/2B, | E3/2B,3/2B, | C3/2B,3/2B, | A,A, B,2 | B,4 | B,4 | B,3/2B,3/2B, | B,B, E2 :| %8
w: Yen- ye- re,|Yen- ye- re,|Yen- ye, Co-|mo~e- sta~u- sted?|Bue-|nas|no- ches. Co-|mo~e- sta~u- sted?|

